X: 24889
T: Magpie Lane
R: slip jig
M: 9/8
K: Dmajor
fga d2 d d3|fga ded c2 A|fga d2 d def|gab abg f2 d||
fga a2 a a3|fga aba f2 d|fga abc' d'c'b|agf efd c2 A||

